;FLAVOR:Marlin
;TIME:877
;Filament used: 5.27019m
;Layer height: 4
;MINX:22.173
;MINY:22.205
;MINZ:0.3
;MAXX:177.827
;MAXY:177.795
;MAXZ:116.3
;Generated with Cura_SteamEngine 4.12.1
M104 S300
M105
M109 S300
M82 ;absolute extrusion mode
G28 ;Home
G1 Z15.0 F6000 ;Move the platform down 15mm
;Prime the extruder
G92 E0
G1 F200 E3
G92 E0
G92 E0
G92 E0
G1 F1500 E-6.5
;LAYER_COUNT:31
;LAYER:0
M107
G0 F3600 X44.259 Y45.685 Z0.3
;TYPE:SKIRT
G1 F1500 E0
G1 F1800 X47.497 Y42.548 E0.0861
G1 X47.855 Y42.224 E0.09533
G1 X51.288 Y39.302 E0.18142
G1 X51.664 Y39.002 E0.19061
G1 X55.277 Y36.306 E0.27671
G1 X55.671 Y36.031 E0.28588
G1 X59.451 Y33.571 E0.37202
G1 X59.86 Y33.323 E0.38115
G1 X63.787 Y31.11 E0.46724
G1 X64.216 Y30.886 E0.47649
G1 X68.278 Y28.931 E0.56258
G1 X68.714 Y28.738 E0.57169
G1 X72.894 Y27.044 E0.65783
G1 X73.35 Y26.876 E0.66711
G1 X77.628 Y25.457 E0.75319
G1 X78.086 Y25.321 E0.76231
G1 X82.447 Y24.177 E0.84842
G1 X82.916 Y24.07 E0.85761
G1 X87.342 Y23.208 E0.94373
G1 X87.818 Y23.131 E0.95294
G1 X92.29 Y22.555 E1.03905
G1 X92.767 Y22.509 E1.0482
G1 X97.265 Y22.22 E1.13429
G1 X97.746 Y22.205 E1.14348
G1 X102.254 Y22.205 E1.22957
G1 X102.735 Y22.22 E1.23876
G1 X107.233 Y22.509 E1.32485
G1 X107.71 Y22.555 E1.334
G1 X112.182 Y23.131 E1.42011
G1 X112.656 Y23.208 E1.42929
G1 X117.082 Y24.069 E1.5154
G1 X117.555 Y24.177 E1.52467
G1 X121.916 Y25.322 E1.61078
G1 X122.374 Y25.458 E1.6199
G1 X126.652 Y26.878 E1.70599
G1 X127.105 Y27.045 E1.71521
G1 X131.285 Y28.738 E1.80134
G1 X131.722 Y28.931 E1.81047
G1 X135.784 Y30.886 E1.89656
G1 X136.213 Y31.11 E1.90581
G1 X140.14 Y33.323 E1.99189
G1 X140.549 Y33.571 E2.00103
G1 X144.329 Y36.031 E2.08716
G1 X144.723 Y36.306 E2.09634
G1 X148.335 Y39.001 E2.18241
G1 X148.711 Y39.301 E2.1916
G1 X152.144 Y42.223 E2.2777
G1 X152.502 Y42.547 E2.28692
G1 X155.74 Y45.684 E2.37302
G1 X156.073 Y46.028 E2.38217
G1 X159.104 Y49.365 E2.46826
G1 X159.416 Y49.732 E2.47746
G1 X162.228 Y53.258 E2.5636
G1 X162.514 Y53.642 E2.57274
G1 X165.094 Y57.339 E2.65884
G1 X165.358 Y57.744 E2.66808
G1 X167.694 Y61.599 E2.75416
G1 X167.929 Y62.017 E2.76332
G1 X170.015 Y66.015 E2.84945
G1 X170.224 Y66.448 E2.85863
G1 X172.049 Y70.57 E2.94473
G1 X172.23 Y71.016 E2.95392
G1 X173.787 Y75.248 E3.04004
G1 X173.938 Y75.704 E3.04921
G1 X175.221 Y80.027 E3.13534
G1 X175.343 Y80.492 E3.14452
G1 X176.346 Y84.886 E3.2306
G1 X176.438 Y85.357 E3.23976
G1 X177.158 Y89.807 E3.32586
G1 X177.219 Y90.285 E3.33506
G1 X177.652 Y94.774 E3.42119
G1 X177.683 Y95.254 E3.43038
G1 X177.827 Y99.759 E3.51646
G1 X177.827 Y100.239 E3.52563
G1 X177.683 Y104.745 E3.61173
G1 X177.652 Y105.225 E3.62092
G1 X177.219 Y109.714 E3.70705
G1 X177.158 Y110.19 E3.71621
G1 X176.439 Y114.641 E3.80232
G1 X176.347 Y115.116 E3.81156
G1 X175.343 Y119.51 E3.89764
G1 X175.221 Y119.973 E3.90679
G1 X173.938 Y124.295 E3.99289
G1 X173.787 Y124.75 E4.00205
G1 X172.23 Y128.983 E4.08819
G1 X172.049 Y129.43 E4.0974
G1 X170.224 Y133.552 E4.18349
G1 X170.016 Y133.985 E4.19267
G1 X167.931 Y137.982 E4.27877
G1 X167.695 Y138.4 E4.28794
G1 X165.359 Y142.255 E4.37402
G1 X165.095 Y142.66 E4.38326
G1 X162.514 Y146.358 E4.46938
G1 X162.228 Y146.742 E4.47853
G1 X159.417 Y150.267 E4.56464
G1 X159.105 Y150.634 E4.57384
G1 X156.074 Y153.971 E4.65993
G1 X155.741 Y154.315 E4.66908
G1 X152.503 Y157.452 E4.75518
G1 X152.145 Y157.776 E4.7644
G1 X148.712 Y160.698 E4.8505
G1 X148.336 Y160.998 E4.85969
G1 X144.723 Y163.694 E4.94579
G1 X144.329 Y163.969 E4.95496
G1 X140.549 Y166.429 E5.0411
G1 X140.14 Y166.677 E5.05023
G1 X136.213 Y168.89 E5.13632
G1 X135.784 Y169.114 E5.14556
G1 X131.722 Y171.069 E5.23166
G1 X131.286 Y171.262 E5.24077
G1 X127.106 Y172.956 E5.3269
G1 X126.65 Y173.124 E5.33619
G1 X122.372 Y174.543 E5.42227
G1 X121.914 Y174.679 E5.43139
G1 X117.553 Y175.823 E5.5175
G1 X117.084 Y175.93 E5.52669
G1 X112.658 Y176.792 E5.6128
G1 X112.182 Y176.869 E5.62201
G1 X107.71 Y177.445 E5.70813
G1 X107.233 Y177.491 E5.71728
G1 X102.735 Y177.78 E5.80336
G1 X102.254 Y177.795 E5.81255
G1 X97.746 Y177.795 E5.89865
G1 X97.265 Y177.78 E5.90784
G1 X92.767 Y177.491 E5.99392
G1 X92.29 Y177.445 E6.00308
G1 X87.818 Y176.869 E6.08919
G1 X87.344 Y176.792 E6.09836
G1 X82.918 Y175.931 E6.18448
G1 X82.445 Y175.823 E6.19374
G1 X78.084 Y174.678 E6.27986
G1 X77.626 Y174.542 E6.28898
G1 X73.348 Y173.122 E6.37507
G1 X72.895 Y172.955 E6.38429
G1 X68.715 Y171.262 E6.47042
G1 X68.278 Y171.069 E6.47954
G1 X64.216 Y169.114 E6.56564
G1 X63.787 Y168.89 E6.57488
G1 X59.86 Y166.677 E6.66097
G1 X59.451 Y166.429 E6.67011
G1 X55.671 Y163.969 E6.75624
G1 X55.277 Y163.694 E6.76542
G1 X51.664 Y160.998 E6.85151
G1 X51.288 Y160.698 E6.8607
G1 X47.855 Y157.776 E6.9468
G1 X47.497 Y157.452 E6.95602
G1 X44.259 Y154.315 E7.04213
G1 X43.926 Y153.971 E7.05127
G1 X40.895 Y150.634 E7.13737
G1 X40.583 Y150.267 E7.14657
G1 X37.772 Y146.742 E7.23267
G1 X37.486 Y146.358 E7.24182
G1 X34.905 Y142.66 E7.32795
G1 X34.641 Y142.255 E7.33718
G1 X32.305 Y138.4 E7.42327
G1 X32.069 Y137.982 E7.43244
G1 X29.984 Y133.985 E7.51853
G1 X29.776 Y133.552 E7.52771
G1 X27.951 Y129.43 E7.6138
G1 X27.77 Y128.983 E7.62301
G1 X26.213 Y124.75 E7.70915
G1 X26.062 Y124.295 E7.71831
G1 X24.779 Y119.973 E7.80441
G1 X24.657 Y119.508 E7.8136
G1 X23.654 Y115.114 E7.89967
G1 X23.562 Y114.643 E7.90884
G1 X22.842 Y110.192 E7.99495
G1 X22.78 Y109.711 E8.00421
G1 X22.347 Y105.205 E8.09067
G1 X22.317 Y104.728 E8.0998
G1 X22.173 Y100.224 E8.18586
G1 X22.173 Y99.744 E8.19503
G1 X22.317 Y95.255 E8.28081
G1 X22.348 Y94.775 E8.28999
G1 X22.781 Y90.286 E8.37612
G1 X22.842 Y89.81 E8.38529
G1 X23.561 Y85.359 E8.4714
G1 X23.653 Y84.884 E8.48064
G1 X24.657 Y80.49 E8.56672
G1 X24.779 Y80.027 E8.57587
G1 X26.062 Y75.705 E8.66197
G1 X26.213 Y75.25 E8.67113
G1 X27.77 Y71.017 E8.75727
G1 X27.951 Y70.57 E8.76648
G1 X29.776 Y66.448 E8.85257
G1 X29.984 Y66.015 E8.86175
G1 X32.069 Y62.018 E8.94785
G1 X32.305 Y61.6 E8.95701
G1 X34.641 Y57.745 E9.0431
G1 X34.905 Y57.34 E9.05233
G1 X37.486 Y53.642 E9.13846
G1 X37.772 Y53.258 E9.14761
G1 X40.583 Y49.733 E9.23371
G1 X40.895 Y49.366 E9.24291
G1 X43.926 Y46.029 E9.32901
G1 X44.259 Y45.685 E9.33815
G0 F3600 X47.738 Y49.276
G1 F1800 X50.976 Y46.139 E9.42426
G1 X51.096 Y46.031 E9.42734
G1 X54.529 Y43.109 E9.51344
G1 X54.654 Y43.009 E9.5165
G1 X58.267 Y40.313 E9.60259
G1 X58.398 Y40.222 E9.60564
G1 X62.178 Y37.762 E9.69178
G1 X62.315 Y37.679 E9.69483
G1 X66.242 Y35.466 E9.78092
G1 X66.385 Y35.391 E9.78401
G1 X70.447 Y33.436 E9.8701
G1 X70.592 Y33.372 E9.87313
G1 X74.772 Y31.678 E9.95927
G1 X74.924 Y31.622 E9.96236
G1 X79.202 Y30.203 E10.04844
G1 X79.355 Y30.158 E10.05149
G1 X83.716 Y29.014 E10.1376
G1 X83.872 Y28.978 E10.14066
G1 X88.298 Y28.116 E10.22677
G1 X88.457 Y28.09 E10.22985
G1 X92.929 Y27.514 E10.31597
G1 X93.088 Y27.499 E10.31902
G1 X97.586 Y27.21 E10.4051
G1 X97.746 Y27.205 E10.40816
G1 X102.254 Y27.205 E10.49425
G1 X102.414 Y27.21 E10.49731
G1 X106.912 Y27.499 E10.58339
G1 X107.071 Y27.514 E10.58644
G1 X111.543 Y28.09 E10.67256
G1 X111.701 Y28.116 E10.67561
G1 X116.127 Y28.977 E10.76173
G1 X116.285 Y29.013 E10.76482
G1 X120.646 Y30.158 E10.85094
G1 X120.799 Y30.203 E10.85398
G1 X125.077 Y31.623 E10.94007
G1 X125.228 Y31.679 E10.94315
G1 X129.408 Y33.372 E11.02928
G1 X129.553 Y33.436 E11.0323
G1 X133.615 Y35.391 E11.1184
G1 X133.758 Y35.466 E11.12148
G1 X137.685 Y37.679 E11.20757
G1 X137.822 Y37.762 E11.21063
G1 X141.602 Y40.222 E11.29677
G1 X141.733 Y40.313 E11.29981
G1 X145.345 Y43.008 E11.38588
G1 X145.47 Y43.108 E11.38894
G1 X148.903 Y46.03 E11.47504
G1 X149.023 Y46.138 E11.47812
G1 X152.261 Y49.275 E11.56423
G1 X152.372 Y49.39 E11.56728
G1 X155.403 Y52.727 E11.65338
G1 X155.507 Y52.849 E11.65644
G1 X158.319 Y56.375 E11.74257
G1 X158.414 Y56.503 E11.74562
G1 X160.994 Y60.2 E11.83172
G1 X161.082 Y60.335 E11.8348
G1 X163.418 Y64.19 E11.92088
G1 X163.496 Y64.33 E11.92394
G1 X165.582 Y68.328 E12.01007
G1 X165.652 Y68.472 E12.01313
G1 X167.477 Y72.594 E12.09922
G1 X167.537 Y72.743 E12.10229
G1 X169.094 Y76.975 E12.18841
G1 X169.145 Y77.127 E12.19147
G1 X170.428 Y81.45 E12.2776
G1 X170.468 Y81.605 E12.28065
G1 X171.471 Y85.999 E12.36673
G1 X171.502 Y86.156 E12.36979
G1 X172.222 Y90.606 E12.45588
G1 X172.242 Y90.765 E12.45894
G1 X172.675 Y95.254 E12.54507
G1 X172.686 Y95.414 E12.54814
G1 X172.83 Y99.919 E12.63422
G1 X172.83 Y100.079 E12.63728
G1 X172.686 Y104.585 E12.72338
G1 X172.675 Y104.745 E12.72644
G1 X172.242 Y109.234 E12.81257
G1 X172.222 Y109.393 E12.81563
G1 X171.503 Y113.844 E12.90174
G1 X171.472 Y114.002 E12.90482
G1 X170.468 Y118.396 E12.9909
G1 X170.428 Y118.55 E12.99394
G1 X169.145 Y122.872 E13.08004
G1 X169.094 Y123.024 E13.08311
G1 X167.537 Y127.257 E13.16925
G1 X167.477 Y127.406 E13.17231
G1 X165.652 Y131.528 E13.25841
G1 X165.583 Y131.672 E13.26146
G1 X163.498 Y135.669 E13.34756
G1 X163.419 Y135.809 E13.35063
G1 X161.083 Y139.664 E13.43671
G1 X160.995 Y139.799 E13.43979
G1 X158.414 Y143.497 E13.52592
G1 X158.319 Y143.625 E13.52896
G1 X155.508 Y147.15 E13.61507
G1 X155.404 Y147.272 E13.61813
G1 X152.373 Y150.609 E13.70423
G1 X152.262 Y150.724 E13.70728
G1 X149.024 Y153.861 E13.79339
G1 X148.904 Y153.969 E13.79647
G1 X145.471 Y156.891 E13.88257
G1 X145.346 Y156.991 E13.88563
G1 X141.733 Y159.687 E13.97172
G1 X141.602 Y159.778 E13.97477
G1 X137.822 Y162.238 E14.06091
G1 X137.685 Y162.321 E14.06396
G1 X133.758 Y164.534 E14.15005
G1 X133.615 Y164.609 E14.15314
G1 X129.553 Y166.564 E14.23923
G1 X129.408 Y166.628 E14.24226
G1 X125.228 Y168.322 E14.3284
G1 X125.076 Y168.378 E14.33149
G1 X120.798 Y169.797 E14.41757
G1 X120.645 Y169.842 E14.42062
G1 X116.284 Y170.986 E14.50673
G1 X116.128 Y171.022 E14.50979
G1 X111.702 Y171.884 E14.5959
G1 X111.543 Y171.91 E14.59898
G1 X107.071 Y172.486 E14.6851
G1 X106.912 Y172.501 E14.68815
G1 X102.414 Y172.79 E14.77423
G1 X102.254 Y172.795 E14.77729
G1 X97.746 Y172.795 E14.86338
G1 X97.586 Y172.79 E14.86644
G1 X93.088 Y172.501 E14.95252
G1 X92.929 Y172.486 E14.95557
G1 X88.457 Y171.91 E15.04169
G1 X88.299 Y171.884 E15.04474
G1 X83.873 Y171.023 E15.13086
G1 X83.715 Y170.987 E15.13395
G1 X79.354 Y169.842 E15.22007
G1 X79.201 Y169.797 E15.22311
G1 X74.923 Y168.377 E15.3092
G1 X74.772 Y168.321 E15.31227
G1 X70.592 Y166.628 E15.39841
G1 X70.447 Y166.564 E15.40143
G1 X66.385 Y164.609 E15.48753
G1 X66.242 Y164.534 E15.49061
G1 X62.315 Y162.321 E15.5767
G1 X62.178 Y162.238 E15.57976
G1 X58.398 Y159.778 E15.6659
G1 X58.267 Y159.687 E15.66894
G1 X54.654 Y156.991 E15.75504
G1 X54.529 Y156.891 E15.7581
G1 X51.096 Y153.969 E15.8442
G1 X50.976 Y153.861 E15.84728
G1 X47.738 Y150.724 E15.93338
G1 X47.627 Y150.609 E15.93644
G1 X44.596 Y147.272 E16.02253
G1 X44.492 Y147.15 E16.0256
G1 X41.681 Y143.625 E16.1117
G1 X41.586 Y143.497 E16.11475
G1 X39.005 Y139.799 E16.20087
G1 X38.917 Y139.664 E16.20395
G1 X36.581 Y135.809 E16.29004
G1 X36.502 Y135.669 E16.29311
G1 X34.417 Y131.672 E16.37921
G1 X34.348 Y131.528 E16.38226
G1 X32.523 Y127.406 E16.46835
G1 X32.463 Y127.257 E16.47142
G1 X30.906 Y123.024 E16.55756
G1 X30.855 Y122.872 E16.56062
G1 X29.572 Y118.55 E16.64673
G1 X29.532 Y118.395 E16.64979
G1 X28.529 Y114.001 E16.73586
G1 X28.498 Y113.844 E16.73892
G1 X27.778 Y109.393 E16.82503
G1 X27.757 Y109.233 E16.82811
G1 X27.324 Y104.727 E16.91457
G1 X27.314 Y104.568 E16.91761
G1 X27.17 Y100.064 E17.00368
G1 X27.17 Y99.904 E17.00673
G1 X27.314 Y95.415 E17.09251
G1 X27.325 Y95.255 E17.09557
G1 X27.758 Y90.766 E17.1817
G1 X27.778 Y90.607 E17.18476
G1 X28.497 Y86.156 E17.27087
G1 X28.528 Y85.998 E17.27395
G1 X29.532 Y81.604 E17.36003
G1 X29.572 Y81.45 E17.36307
G1 X30.855 Y77.128 E17.44917
G1 X30.906 Y76.976 E17.45224
G1 X32.463 Y72.743 E17.53838
G1 X32.523 Y72.594 E17.54144
G1 X34.348 Y68.472 E17.62754
G1 X34.417 Y68.328 E17.63059
G1 X36.502 Y64.331 E17.71669
G1 X36.581 Y64.191 E17.71976
G1 X38.917 Y60.336 E17.80585
G1 X39.005 Y60.201 E17.80892
G1 X41.586 Y56.503 E17.89505
G1 X41.681 Y56.375 E17.8981
G1 X44.492 Y52.85 E17.9842
G1 X44.596 Y52.728 E17.98726
G1 X47.627 Y49.391 E18.07336
G1 X47.738 Y49.276 E18.07641
G1 F1500 E11.57641
;MESH:cone v1 (2).stl
G0 F3600 X51.287 Y52.828
G0 X87.501 Y108.521
G0 X88.91 Y110.289
G0 X90.569 Y111.827
G0 X92.435 Y113.101
G0 X94.27 Y113.984
G0 X96.62 Y114.807
G1 F1500 E18.07641
G0 F3600 X96.642 Y114.71
;TYPE:WALL-OUTER
G1 F1800 X98.873 Y115.046 E18.1195
G1 X101.127 Y115.046 E18.16255
G1 X103.358 Y114.71 E18.20564
G1 X105.512 Y114.046 E18.24869
G1 X107.545 Y113.067 E18.29179
G1 X109.407 Y111.796 E18.33484
G1 X111.061 Y110.262 E18.37793
G1 X112.466 Y108.499 E18.42098
G1 X113.594 Y106.547 E18.46404
G1 X114.418 Y104.447 E18.50712
G1 X114.92 Y102.249 E18.55018
G1 X115.088 Y100 E18.59325
G1 X114.92 Y97.751 E18.63633
G1 X114.418 Y95.553 E18.67939
G1 X113.594 Y93.453 E18.72247
G1 X112.466 Y91.501 E18.76553
G1 X111.061 Y89.738 E18.80858
G1 X109.407 Y88.204 E18.85167
G1 X107.545 Y86.933 E18.89472
G1 X105.512 Y85.954 E18.93782
G1 X103.358 Y85.29 E18.98087
G1 X101.127 Y84.954 E19.02396
G1 X98.873 Y84.954 E19.067
G1 X96.642 Y85.29 E19.11009
G1 X94.488 Y85.954 E19.15314
G1 X92.455 Y86.933 E19.19624
G1 X90.593 Y88.204 E19.23929
G1 X88.939 Y89.738 E19.28238
G1 X87.534 Y91.501 E19.32543
G1 X86.406 Y93.453 E19.36849
G1 X85.582 Y95.553 E19.41157
G1 X85.08 Y97.751 E19.45463
G1 X84.912 Y100 E19.49771
G1 X85.08 Y102.249 E19.54078
G1 X85.582 Y104.447 E19.58384
G1 X86.406 Y106.547 E19.62692
G1 X87.534 Y108.499 E19.66998
G1 X88.939 Y110.262 E19.71304
G1 X90.593 Y111.796 E19.75612
G1 X92.455 Y113.067 E19.79918
G1 X94.488 Y114.046 E19.84227
G1 X96.642 Y114.71 E19.88532
G0 F3600 X98.873 Y115.046
G0 X99.117 Y115.046
G0 X99.117 Y115.146
G0 X102.169 Y167.696
G0 X102.172 Y167.795
G1 F1800 X97.828 Y167.795 E19.96828
G1 X93.492 Y167.516 E20.05127
G1 X89.169 Y166.96 E20.13451
G1 X84.901 Y166.128 E20.21756
G1 X80.706 Y165.028 E20.30038
G1 X76.567 Y163.654 E20.38367
G1 X72.544 Y162.026 E20.46656
G1 X68.627 Y160.139 E20.5496
G1 X64.838 Y158.005 E20.63265
G1 X61.186 Y155.628 E20.71587
G1 X57.715 Y153.037 E20.7986
G1 X54.406 Y150.221 E20.88158
G1 X51.273 Y147.185 E20.9649
G1 X48.353 Y143.971 E21.04783
G1 X45.631 Y140.557 E21.13122
G1 X43.158 Y137.012 E21.21378
G1 X40.9 Y133.288 E21.29695
G1 X38.886 Y129.427 E21.38012
G1 X37.126 Y125.45 E21.46318
G1 X35.628 Y121.382 E21.54597
G1 X34.386 Y117.196 E21.62937
G1 X33.422 Y112.972 E21.71211
G1 X32.728 Y108.681 E21.79513
G1 X32.309 Y104.327 E21.87867
G1 X32.171 Y99.983 E21.96167
G1 X32.31 Y95.643 E22.04461
G1 X32.726 Y91.334 E22.12728
G1 X33.422 Y87.028 E22.21059
G1 X34.386 Y82.804 E22.29334
G1 X35.628 Y78.618 E22.37673
G1 X37.126 Y74.55 E22.45952
G1 X38.886 Y70.573 E22.54258
G1 X40.9 Y66.712 E22.62575
G1 X43.158 Y62.988 E22.70893
G1 X45.631 Y59.443 E22.79148
G1 X48.353 Y56.029 E22.87487
G1 X51.273 Y52.815 E22.9578
G1 X54.406 Y49.779 E23.04112
G1 X57.715 Y46.963 E23.12411
G1 X61.186 Y44.372 E23.20683
G1 X64.838 Y41.995 E23.29005
G1 X68.627 Y39.861 E23.3731
G1 X72.544 Y37.974 E23.45614
G1 X76.567 Y36.346 E23.53903
G1 X80.706 Y34.972 E23.62232
G1 X84.901 Y33.872 E23.70515
G1 X89.169 Y33.04 E23.78819
G1 X93.492 Y32.484 E23.87144
G1 X97.828 Y32.205 E23.95442
G1 X102.172 Y32.205 E24.03738
G1 X106.508 Y32.484 E24.12037
G1 X110.831 Y33.04 E24.20361
G1 X115.099 Y33.872 E24.28666
G1 X119.294 Y34.972 E24.36948
G1 X123.433 Y36.346 E24.45277
G1 X127.456 Y37.974 E24.53566
G1 X131.373 Y39.861 E24.6187
G1 X135.162 Y41.995 E24.70175
G1 X138.814 Y44.372 E24.78497
G1 X142.285 Y46.963 E24.86769
G1 X145.594 Y49.779 E24.95068
G1 X148.727 Y52.815 E25.034
G1 X151.647 Y56.029 E25.11693
G1 X154.369 Y59.443 E25.20032
G1 X156.842 Y62.988 E25.28287
G1 X159.1 Y66.712 E25.36605
G1 X161.114 Y70.573 E25.44922
G1 X162.874 Y74.55 E25.53228
G1 X164.372 Y78.618 E25.61507
G1 X165.614 Y82.804 E25.69846
G1 X166.578 Y87.028 E25.78121
G1 X167.274 Y91.334 E25.86452
G1 X167.69 Y95.643 E25.9472
G1 X167.829 Y100 E26.03045
G1 X167.69 Y104.357 E26.11371
G1 X167.274 Y108.666 E26.19638
G1 X166.578 Y112.972 E26.27969
G1 X165.614 Y117.196 E26.36244
G1 X164.372 Y121.382 E26.44583
G1 X162.874 Y125.45 E26.52862
G1 X161.114 Y129.427 E26.61168
G1 X159.1 Y133.288 E26.69485
G1 X156.842 Y137.012 E26.77803
G1 X154.369 Y140.557 E26.86058
